X:105
T: Concertina Reel
M: 4/4
L: 1/8
R: Reel
K: D
dB|A2 FA BAFA|A2 FA BAFA|B2 cA BAcA|B2 cA BAFB|
A2 FA BAFA|A2 FA BAFE|FABc d2 dB|AFEF D2 :|
zB|Ad (3dcd Ad (3dcd|Ad (3dcd BAFA|B2cA BAcA|B2 cA BAFB|
Ad (3dcd Ad (3dcd|Ad (3dcd BAFE|FABc d2 dB|AFEF D2 :|
